!! 00000] TT[00
!! NN
!!!OTL: Xiu he bao
!!!ARE: Asia, China,ˇHeilongjiang, Mudanjiang
!! Ethnic Group: Han
!! III,  63
!!!SCT: C0211
!!!YEM: Copyright 1995, estate of Helmut Schaffrath.
**kern
*ICvox
*Ivox
*M2/4
*k[b-]
*F:
{8dd
16dd
16dd
8gg
8ee
=1
4dd
8cc
8a
=2
8dd
16dd
16dd
8ff
8a
=3
8g
16g
16f
4g}
=4
{8.a
16cc
8dd
8dd
=5
8cc
8a
8g
8f
=6
8g
8g
8f
8d
=7
8a
8cc
8g
8e
=8
8.d
16c
4d}
==
!!!AGN: Xiaodiao, Shidiao, Xiuhebao diao. NannÅ siqing
!! Melodie des Beutelstickens.
!!    Vereinzelt Verzierungen.
!!!ONB: ESAC (Essen Associative Code) Database: CHINA
!!!AMT: simple duple
!!!AIN: vox
!!!EED: Helmut Schaffrath
!!!EEV: 1.0
*-
